humanity-icon-theme/Humanity/devices/24/multimedia-player-ipod-touch.svg

<?xml version="1.0" encoding="UTF-8" standalone="no"?>
<!-- Created with Inkscape (http://www.inkscape.org/) -->
<svg
   xmlns:svg="http://www.w3.org/2000/svg"
   xmlns="http://www.w3.org/2000/svg"
   xmlns:xlink="http://www.w3.org/1999/xlink"
   version="1.0"
   width="24"
   height="24"
   id="svg2531">
  <defs
     id="defs2533">
    <radialGradient
       cx="51.4375"
       cy="-12.203125"
       r="2.171875"
       fx="51.4375"
       fy="-12.203125"
       id="radialGradient2529"
       xlink:href="#linearGradient51765"
       gradientUnits="userSpaceOnUse"
       gradientTransform="matrix(-1.8417267,-5.8450938e-8,-1.2125708e-7,0.9200109,52.236437,52.586419)" />
    <linearGradient
       id="linearGradient51765">
      <stop
         id="stop51767"
         style="stop-color:#000000;stop-opacity:1"
         offset="0" />
      <stop
         id="stop51769"
         style="stop-color:#000000;stop-opacity:0"
         offset="1" />
    </linearGradient>
    <radialGradient
       cx="51.4375"
       cy="-12.203125"
       r="2.171875"
       fx="51.4375"
       fy="-12.203125"
       id="radialGradient2527"
       xlink:href="#linearGradient51765"
       gradientUnits="userSpaceOnUse"
       gradientTransform="matrix(1.8417267,-5.1455073e-7,6.2669991e-7,0.9200109,-115.2312,52.586443)" />
    <linearGradient
       id="linearGradient47870">
      <stop
         id="stop47872"
         style="stop-color:#000000;stop-opacity:0"
         offset="0" />
      <stop
         id="stop47878"
         style="stop-color:#000000;stop-opacity:1"
         offset="0.5" />
      <stop
         id="stop47874"
         style="stop-color:#000000;stop-opacity:0"
         offset="1" />
    </linearGradient>
    <linearGradient
       x1="32.084972"
       y1="-14.402173"
       x2="32.084972"
       y2="-5.5633383"
       id="linearGradient2525"
       xlink:href="#linearGradient47870"
       gradientUnits="userSpaceOnUse"
       gradientTransform="matrix(0.6655121,0,0,0.4518781,-54.615029,45.875214)" />
    <linearGradient
       id="linearGradient3176">
      <stop
         id="stop3178"
         style="stop-color:#aaaaaa;stop-opacity:1"
         offset="0" />
      <stop
         id="stop3180"
         style="stop-color:#6c6c6c;stop-opacity:1"
         offset="1" />
    </linearGradient>
    <linearGradient
       x1="24"
       y1="41.209427"
       x2="24"
       y2="44.02306"
       id="linearGradient2517"
       xlink:href="#linearGradient3176"
       gradientUnits="userSpaceOnUse"
       gradientTransform="matrix(0.5200015,0,0,0.500001,-0.4800361,0.7499753)" />
    <linearGradient
       id="linearGradient3188">
      <stop
         id="stop3190"
         style="stop-color:#404040;stop-opacity:1"
         offset="0" />
      <stop
         id="stop3192"
         style="stop-color:#282828;stop-opacity:1"
         offset="1" />
    </linearGradient>
    <linearGradient
       x1="23.052357"
       y1="3"
       x2="23.052357"
       y2="42.073647"
       id="linearGradient2514"
       xlink:href="#linearGradient3188"
       gradientUnits="userSpaceOnUse"
       gradientTransform="matrix(0.4285735,0,0,0.4473696,1.7142343,1.9341849)" />
    <linearGradient
       id="linearGradient3219">
      <stop
         id="stop3221"
         style="stop-color:#3c3c3c;stop-opacity:1"
         offset="0" />
      <stop
         id="stop3223"
         style="stop-color:#313131;stop-opacity:1"
         offset="1" />
    </linearGradient>
    <radialGradient
       cx="24.000002"
       cy="22.5"
       r="10"
       fx="24.000002"
       fy="22.5"
       id="radialGradient2511"
       xlink:href="#linearGradient3219"
       gradientUnits="userSpaceOnUse"
       gradientTransform="matrix(0.4736864,0,0,0.6230791,0.6315264,-2.5192805)" />
    <linearGradient
       id="linearGradient3208">
      <stop
         id="stop3210"
         style="stop-color:#ffffff;stop-opacity:1"
         offset="0" />
      <stop
         id="stop3212"
         style="stop-color:#ffffff;stop-opacity:0"
         offset="1" />
    </linearGradient>
    <linearGradient
       x1="24"
       y1="4"
       x2="24"
       y2="48.301048"
       id="linearGradient2508"
       xlink:href="#linearGradient3208"
       gradientUnits="userSpaceOnUse"
       gradientTransform="matrix(0.3684236,0,0,0.4166679,3.1578321,2.6249697)" />
    <linearGradient
       id="linearGradient3246">
      <stop
         id="stop3248"
         style="stop-color:#e6e6e6;stop-opacity:1"
         offset="0" />
      <stop
         id="stop3250"
         style="stop-color:#e6e6e6;stop-opacity:0"
         offset="1" />
    </linearGradient>
    <linearGradient
       x1="14"
       y1="2"
       x2="32"
       y2="40"
       id="linearGradient2505"
       xlink:href="#linearGradient3246"
       gradientUnits="userSpaceOnUse"
       gradientTransform="matrix(0.375,0,0,0.4,3.375,3)" />
    <linearGradient
       id="linearGradient3260">
      <stop
         id="stop3262"
         style="stop-color:#333333;stop-opacity:1"
         offset="0" />
      <stop
         id="stop3264"
         style="stop-color:#3e3e3e;stop-opacity:1"
         offset="1" />
    </linearGradient>
    <linearGradient
       x1="24"
       y1="37"
       x2="24"
       y2="39"
       id="linearGradient2499"
       xlink:href="#linearGradient3260"
       gradientUnits="userSpaceOnUse"
       gradientTransform="translate(-12,-19)" />
  </defs>
  <g
     id="layer1">
    <g
       transform="matrix(0.5333333,0,0,1.0000001,28.798604,-19.361264)"
       id="g3423">
      <rect
         width="22"
         height="3.9940758"
         x="-42.497383"
         y="39.367184"
         id="rect46899"
         style="opacity:0.3;fill:url(#linearGradient2525);fill-opacity:1;fill-rule:evenodd;stroke:none" />
      <path
         d="M -20.497383,39.36126 L -20.497383,43.357557 C -18.292362,43.342467 -16.497383,42.459765 -16.497383,41.366469 C -16.497383,40.273174 -18.292361,39.376347 -20.497383,39.36126 z"
         id="path48849"
         style="opacity:0.3;fill:url(#radialGradient2527);fill-opacity:1;fill-rule:evenodd;stroke:none" />
      <path
         d="M -42.497383,39.36126 L -42.497383,43.357557 C -44.702404,43.342467 -46.497383,42.459765 -46.497383,41.366469 C -46.497383,40.273174 -44.702405,39.376347 -42.497383,39.36126 z"
         id="path52742"
         style="opacity:0.3;fill:url(#radialGradient2529);fill-opacity:1;fill-rule:evenodd;stroke:none" />
    </g>
    <rect
       width="13.000078"
       height="21.000078"
       rx="1.25"
       ry="1.25"
       x="5.4999609"
       y="1.4999582"
       id="rect3166"
       style="fill:#e6e6e6;fill-opacity:1;fill-rule:nonzero;stroke:url(#linearGradient2517);stroke-width:0.9999218;stroke-linecap:butt;stroke-linejoin:round;marker:none;marker-start:none;marker-mid:none;marker-end:none;stroke-miterlimit:4;stroke-dasharray:none;stroke-dashoffset:0;stroke-opacity:1;visibility:visible;display:inline;overflow:visible;enable-background:accumulate" />
    <rect
       width="9.0000782"
       height="17.000078"
       rx="0.25"
       ry="0.25"
       x="7.4999609"
       y="3.4999611"
       id="rect3184"
       style="fill:url(#linearGradient2514);fill-opacity:1;fill-rule:nonzero;stroke:#1a1a1a;stroke-width:0.99992192;stroke-linecap:butt;stroke-linejoin:round;marker:none;marker-start:none;marker-mid:none;marker-end:none;stroke-miterlimit:4;stroke-dasharray:none;stroke-dashoffset:0;stroke-opacity:1;visibility:visible;display:inline;overflow:visible;enable-background:accumulate" />
    <rect
       width="9.0000782"
       height="12.000079"
       x="7.4999614"
       y="5.4999609"
       id="rect3216"
       style="fill:url(#radialGradient2511);fill-opacity:1;fill-rule:nonzero;stroke:#212121;stroke-width:0.99992174;stroke-linecap:butt;stroke-linejoin:round;marker:none;marker-start:none;marker-mid:none;marker-end:none;stroke-miterlimit:4;stroke-dasharray:none;stroke-dashoffset:0;stroke-opacity:1;visibility:visible;display:inline;overflow:visible;enable-background:accumulate" />
    <rect
       width="7.0000782"
       height="15.000078"
       x="8.4999609"
       y="4.499959"
       id="rect3196"
       style="opacity:0.2;fill:none;fill-opacity:1;fill-rule:nonzero;stroke:url(#linearGradient2508);stroke-width:0.99992192;stroke-linecap:butt;stroke-linejoin:round;marker:none;marker-start:none;marker-mid:none;marker-end:none;stroke-miterlimit:4;stroke-dasharray:none;stroke-dashoffset:0;stroke-opacity:1;visibility:visible;display:inline;overflow:visible;enable-background:accumulate" />
    <path
       d="M 9,5 L 9,19 L 15,5 L 9,5 z"
       id="rect3238"
       style="opacity:0.15;fill:url(#linearGradient2505);fill-opacity:1;fill-rule:nonzero;stroke:none;stroke-width:0.99992186;stroke-linecap:butt;stroke-linejoin:round;marker:none;marker-start:none;marker-mid:none;marker-end:none;stroke-miterlimit:4;stroke-dasharray:none;stroke-dashoffset:0;stroke-opacity:1;visibility:visible;display:inline;overflow:visible;enable-background:accumulate" />
    <rect
       width="1"
       height="1"
       x="5"
       y="5"
       id="rect3254"
       style="fill:#7f7f7f;fill-opacity:1;fill-rule:nonzero;stroke:none;stroke-width:0.99992174;stroke-linecap:butt;stroke-linejoin:round;marker:none;marker-start:none;marker-mid:none;marker-end:none;stroke-miterlimit:4;stroke-dasharray:none;stroke-dashoffset:0;stroke-opacity:1;visibility:visible;display:inline;overflow:visible;enable-background:accumulate" />
    <rect
       width="1.0000002"
       height="2"
       x="5"
       y="7"
       id="rect3256"
       style="fill:#7f7f7f;fill-opacity:1;fill-rule:nonzero;stroke:none;stroke-width:0.99992174;stroke-linecap:butt;stroke-linejoin:round;marker:none;marker-start:none;marker-mid:none;marker-end:none;stroke-miterlimit:4;stroke-dasharray:none;stroke-dashoffset:0;stroke-opacity:1;visibility:visible;display:inline;overflow:visible;enable-background:accumulate" />
    <rect
       width="2"
       height="2"
       x="11"
       y="18"
       id="rect3258"
       style="fill:url(#linearGradient2499);fill-opacity:1;fill-rule:nonzero;stroke:none;stroke-width:0.99992174;stroke-linecap:butt;stroke-linejoin:round;marker:none;marker-start:none;marker-mid:none;marker-end:none;stroke-miterlimit:4;stroke-dasharray:none;stroke-dashoffset:0;stroke-opacity:1;visibility:visible;display:inline;overflow:visible;enable-background:accumulate" />
  </g>
</svg>

<?xml version="1.0" encoding="UTF-8" standalone="no"?>
<!-- Created with Inkscape (http://www.inkscape.org/) -->
<svg id="svg2531" xmlns="http://www.w3.org/2000/svg" height="24" width="24" version="1.0" xmlns:xlink="http://www.w3.org/1999/xlink">
 <defs id="defs2533">
  <radialGradient id="radialGradient2529" xlink:href="#linearGradient51765" gradientUnits="userSpaceOnUse" cy="-12.203" cx="51.438" gradientTransform="matrix(-1.8417 -5.8451e-8 -1.2126e-7 .92001 52.236 52.586)" r="2.1719"/>
  <linearGradient id="linearGradient51765">
   <stop id="stop51767" offset="0"/>
   <stop id="stop51769" style="stop-opacity:0" offset="1"/>
  </linearGradient>
  <radialGradient id="radialGradient2527" xlink:href="#linearGradient51765" gradientUnits="userSpaceOnUse" cy="-12.203" cx="51.438" gradientTransform="matrix(1.8417 -5.1455e-7 6.267e-7 .92001 -115.23 52.586)" r="2.1719"/>
  <linearGradient id="linearGradient2525" y2="-5.5633" gradientUnits="userSpaceOnUse" x2="32.085" gradientTransform="matrix(.66551 0 0 .45188 -54.615 45.875)" y1="-14.402" x1="32.085">
   <stop id="stop47872" style="stop-opacity:0" offset="0"/>
   <stop id="stop47878" offset=".5"/>
   <stop id="stop47874" style="stop-opacity:0" offset="1"/>
  </linearGradient>
  <linearGradient id="linearGradient2517" y2="44.023" gradientUnits="userSpaceOnUse" x2="24" gradientTransform="matrix(0.52 0 0 0.5 -.48004 .74998)" y1="41.209" x1="24">
   <stop id="stop3178" style="stop-color:#aaa" offset="0"/>
   <stop id="stop3180" style="stop-color:#6c6c6c" offset="1"/>
  </linearGradient>
  <linearGradient id="linearGradient2514" y2="42.074" gradientUnits="userSpaceOnUse" x2="23.052" gradientTransform="matrix(.42857 0 0 .44737 1.7142 1.9342)" y1="3" x1="23.052">
   <stop id="stop3190" style="stop-color:#404040" offset="0"/>
   <stop id="stop3192" style="stop-color:#282828" offset="1"/>
  </linearGradient>
  <radialGradient id="radialGradient2511" gradientUnits="userSpaceOnUse" cy="22.5" cx="24" gradientTransform="matrix(.47369 0 0 .62308 .63153 -2.5193)" r="10">
   <stop id="stop3221" style="stop-color:#3c3c3c" offset="0"/>
   <stop id="stop3223" style="stop-color:#313131" offset="1"/>
  </radialGradient>
  <linearGradient id="linearGradient2508" y2="48.301" gradientUnits="userSpaceOnUse" x2="24" gradientTransform="matrix(.36842 0 0 .41667 3.1578 2.625)" y1="4" x1="24">
   <stop id="stop3210" style="stop-color:#fff" offset="0"/>
   <stop id="stop3212" style="stop-color:#fff;stop-opacity:0" offset="1"/>
  </linearGradient>
  <linearGradient id="linearGradient2505" y2="40" gradientUnits="userSpaceOnUse" x2="32" gradientTransform="matrix(.375 0 0 .4 3.375 3)" y1="2" x1="14">
   <stop id="stop3248" style="stop-color:#e6e6e6" offset="0"/>
   <stop id="stop3250" style="stop-color:#e6e6e6;stop-opacity:0" offset="1"/>
  </linearGradient>
  <linearGradient id="linearGradient2499" y2="39" gradientUnits="userSpaceOnUse" x2="24" gradientTransform="translate(-12,-19)" y1="37" x1="24">
   <stop id="stop3262" style="stop-color:#333" offset="0"/>
   <stop id="stop3264" style="stop-color:#3e3e3e" offset="1"/>
  </linearGradient>
 </defs>
 <g id="layer1">
  <g id="g3423" transform="matrix(.53333 0 0 1 28.799 -19.361)">
   <rect id="rect46899" style="opacity:.3;fill:url(#linearGradient2525);fill-rule:evenodd" height="3.9941" width="22" y="39.367" x="-42.497"/>
   <path id="path48849" style="opacity:.3;fill:url(#radialGradient2527);fill-rule:evenodd" d="m-20.497 39.361v3.997c2.205-0.016 4-0.898 4-1.992 0-1.093-1.795-1.99-4-2.005z"/>
   <path id="path52742" style="opacity:.3;fill:url(#radialGradient2529);fill-rule:evenodd" d="m-42.497 39.361v3.997c-2.205-0.016-4-0.898-4-1.992 0-1.093 1.795-1.99 4-2.005z"/>
  </g>
  <rect id="rect3166" style="stroke-linejoin:round;stroke-width:.99992;stroke:url(#linearGradient2517);fill:#e6e6e6" rx="1.25" ry="1.25" height="21" width="13" y="1.5" x="5.5"/>
  <rect id="rect3184" style="stroke-linejoin:round;stroke-width:.99992;stroke:#1a1a1a;fill:url(#linearGradient2514)" rx=".25" ry=".25" height="17" width="9.0001" y="3.5" x="7.5"/>
  <rect id="rect3216" style="stroke-linejoin:round;stroke-width:.99992;stroke:#212121;fill:url(#radialGradient2511)" height="12" width="9.0001" y="5.5" x="7.5"/>
  <rect id="rect3196" style="opacity:.2;stroke-linejoin:round;stroke-width:.99992;stroke:url(#linearGradient2508);fill:none" height="15" width="7.0001" y="4.5" x="8.5"/>
  <path id="rect3238" style="opacity:.15;fill:url(#linearGradient2505)" d="m9 5v14l6-14h-6z"/>
  <rect id="rect3254" style="fill:#7f7f7f" height="1" width="1" y="5" x="5"/>
  <rect id="rect3256" style="fill:#7f7f7f" height="2" width="1" y="7" x="5"/>
  <rect id="rect3258" style="fill:url(#linearGradient2499)" height="2" width="2" y="18" x="11"/>
 </g>
</svg>
